icons/radio-2-line.svg

<svg viewBox="0 0 24 24" fill="currentColor" xmlns="http://www.w3.org/2000/svg">
    <path d="M6 3V1H8V3H21.0082C21.556 3 22 3.44495 22 3.9934V20.0066C22 20.5552 21.5447 21 21.0082 21H2.9918C2.44405 21 2 20.5551 2 20.0066V3.9934C2 3.44476 2.45531 3 2.9918 3H6ZM4 5V19H20V5H4ZM9 15C7.34315 15 6 13.6569 6 12C6 10.3431 7.34315 9 9 9C10.6569 9 12 10.3431 12 12C12 13.6569 10.6569 15 9 15ZM14 9H18V11H14V9ZM14 13H18V15H14V13Z"/>
</svg>

<svg xmlns="http://www.w3.org/2000/svg" viewBox="0 0 24 24">
    <g>
        <path fill="none" d="M0 0h24v24H0z"/>
        <path d="M6 3V1h2v2h13.008c.548 0 .992.445.992.993v16.014a1 1 0 0 1-.992.993H2.992A.993.993 0 0 1 2 20.007V3.993A1 1 0 0 1 2.992 3H6zM4 5v14h16V5H4zm5 10a3 3 0 1 1 0-6 3 3 0 0 1 0 6zm5-6h4v2h-4V9zm0 4h4v2h-4v-2z"/>
    </g>
</svg>
